svgs/sharp-solid/hose-reel.svg

<svg xmlns="http://www.w3.org/2000/svg" viewBox="0 0 640 512"><!--! Font Awesome Pro 6.6.0 by @fontawesome - https://fontawesome.com License - https://fontawesome.com/license (Commercial License) Copyright 2024 Fonticons, Inc. --><path d="M320 64c-106 0-192 86-192 192s86 192 192 192c40.8 0 78.6-12.7 109.7-34.4l36.6 52.5C424.8 495 374.3 512 320 512C178.6 512 64 397.4 64 256S178.6 0 320 0S576 114.6 576 256l0 96 8 0 24 0 0 48-24 0-2.3 0-11.4 80 13.7 0 0 32-16 0-48 0-16 0 0-32 13.7 0-11.4-80-2.3 0-24 0 0-48 24 0 8 0 0-96c0-106-86-192-192-192zM224 256a96 96 0 1 0 192 0 96 96 0 1 0 -192 0zm96 160a160 160 0 1 1 0-320 160 160 0 1 1 0 320zM256 256a64 64 0 1 1 128 0 64 64 0 1 1 -128 0z"/></svg>

<svg xmlns="http://www.w3.org/2000/svg" viewBox="0 0 640 512"><!--! Font Awesome Pro 6.4.0 by @fontawesome - https://fontawesome.com License - https://fontawesome.com/license (Commercial License) Copyright 2023 Fonticons, Inc. --><path d="M320 64c-106 0-192 86-192 192s86 192 192 192c40.8 0 78.6-12.7 109.7-34.4l36.6 52.5C424.8 495 374.3 512 320 512C178.6 512 64 397.4 64 256S178.6 0 320 0S576 114.6 576 256v96h8 24v48H584h-2.3l-11.4 80H584v32H568 520 504V480h13.7l-11.4-80H504 480V352h24 8V256c0-106-86-192-192-192zM224 256a96 96 0 1 0 192 0 96 96 0 1 0 -192 0zm96 160a160 160 0 1 1 0-320 160 160 0 1 1 0 320zM256 256a64 64 0 1 1 128 0 64 64 0 1 1 -128 0z"/></svg>
